X:1
T:Title
%%score { ( 1 3 ) | ( 2 4 ) }
L:1/8
M:3/4
K:Ab
V:1 treble nm="Grand Piano"
V:3 treble 
V:2 bass 
V:4 bass 
V:1
 z2 z2[Q:1/4=92] [CE][CA] | c2 B2 EG | B2 [CA]2 GF | E3 F EB, | C4 [CE][EA] | c2 B2 EG | B2 A2 GF | %7
 E3 A GB |[M:2/4] [CA]4 |[M:1/4] c>d |[M:3/4] c4 z2 |[M:2/4] z c E2 |[M:1/4] E>F |[M:3/4] E4 z2 | %14
 C2 [CEA]2 z2 | c-[DGc-] [DGc][DGB] .[DG=A].[DGc] | z c e2 E>F | z2 z2 [DB]2 |[M:2/4] [A,CA]4 |] %19
V:2
 z2 z2 [A,,A,][A,,A,] | [E,A,E]2 [E,G,D]2 [E,G,D][E,B,D] | [E,G,D]2 [A,,A,]2 [D,A,D][D,A,D] | %3
 [E,A,C]3 [E,A,C] [E,G,B,][E,G,] | [A,,E,A,]4 [A,,A,][C,A,] | [E,A,E]2 [E,G,D]2 [E,G,D][=E,B,D] | %6
 [F,A,C]2 [F,A,C]2 [D,A,D][=D,A,_C] | [E,A,C]3 [E,C] [E,B,][E,G,D] |[M:2/4] [A,,A,]4 |[M:1/4] z2 | %10
[M:3/4] [G,DG][E,D] [G,D][E,D] .[G,DG]>[K:treble]B |[M:2/4] A,[K:bass]E, [A,C]2 |[M:1/4] z2 | %13
[M:3/4] [G,B,][E,G,] G,[E,G,B,] [G,B,][E,G,B,] | z[K:treble] E A,2 c>d | %15
 E,E, G,E, z/[K:treble] .BB/ | A,E,[K:treble] [A,CA]2 C>C | [E,B,D][E,A,] [E,G,]E, [E,F,]E, | %18
[M:2/4] A,,4 |] %19
V:3
 x6 | x6 | x6 | x6 | x6 | x6 | x6 | x6 |[M:2/4] x4 |[M:1/4] x2 |[M:3/4] z G G[GB] =A/B/.[DGc] | %11
[M:2/4] [CA]2 z2 |[M:1/4] x2 |[M:3/4] z B, B,D C/D/E/D/ | x6 | .[DG]2 z2 z2 | [CA]2 z2 z2 | %17
 E[Fd] [Ec]2 z G, |[M:2/4] x4 |] %19
V:4
 x6 | x6 | x6 | x6 | x6 | x6 | x6 | x6 |[M:2/4] x4 |[M:1/4] x2 |[M:3/4] z2 z2 z E,[K:treble] | %11
[M:2/4] x[K:bass] x3 |[M:1/4] x2 |[M:3/4] x6 | A,2[K:treble] z2 z2 | z2 z2 G,[K:treble]E, | %16
 x2[K:treble] x4 | x6 |[M:2/4] x4 |] %19

